X:1
T:See, see the shepherds' queen - Tomkins
T:James Gibb editions
T:#
%%score { 1 | 2 } 3 4 5
L:1/8
Q:1/4=120
M:2/2
K:D
V:1 treble nm="Soprano 1" snm="S"
V:2 treble 
V:3 treble nm="Alto" snm="A"
V:4 treble-8 nm="Tenor" snm="T"
V:5 bass nm="Bass" snm="B"
V:1
"^See, see the shepherds' queen""^Thomas Tomkins\n(1572-1656)"!f! A8 | A4 A2 F2- | F (^G A2) G4- | %3
w: See,|see the shep\-|* herds' * queen,|
 G2 B2 A4- | A2 ^G2 F3 F |[M:2/2] E2 BA ^G2 F2 | E4 z4 | z2 AG F2 E2 | D2 BA ^G2 c2 | B6 A2- | %10
w: * Fair Phyl\-|* lis all in|green, fa la la la|la,|fa la la la|la, fa la la la|la, fa|
 A2 ^GF G4 | A8 | z4!p! c4 | e4 A2 d2- | d2 c2 B4- | B2 d2 c3 B | (cd e4) ^d2 | e2 gf e2 d2 | %18
w: * la la la|la,|See,|see the shep\-|* herds' queen,|* Fair Phyl- lis|all * * in|green, fa la la la|
 c2 ed c2 B2 | A2 cB A2 G2 | F4 E4 | z2 BA ^G2 c2 | B8 | A6!f! c2 | d3 c B2 B2 | B4 B2 B2 | %26
w: la, fa la la la|la, fa la la la|la la,|fa la la la|la|la, The|shep- herds home her|bring- ing With|
 B3 B B2 A2 | A3 A B3 B |!p! A2 B2 A2 B2- | B2 A4 ^G2 | A8 | z8 | z2 A2 d=cBc | d=cBA ^GB A2 | %34
w: pip- ing and with|sing- ing, sing- ing.|Fa la la la|* la la|la,||fa la la la la|la la la la la, fa la|
 ^G2 A4 G2 | A4 z2 A2 | F2 G2 F4 | ^G4 z2!mp! A2 | B3 c d2 e2 | f4 f2 f2 | e3 e e (d c2) | %41
w: la la la|la, fa|la la la|la. The|shep- herds home her|bring- ing With|pip- ing and with *|
 d3 d d3 d | d4 d4- | d2 =c2 B4 | A4 z2 F2 | A2 G2 E2 D2- | D2 C2 D4- | D4 z2"^cresc." A2 | %48
w: sing- ing, sing- ing.|Fa la|* la la|la, fa|la la la la|* la la,|* fa|
 edcd edcB | c2 d2 c2!f! d2- | d2 B2 B4 | B8 |!mp! A2 A4 A2 | A4 A4 | ^G8 | B4 B4 | B2 B4 ^A2 | %57
w: la la la la la la la la|la, fa la, fa|* la la|la.|Then dance we|on a|row.|And chant|it as we|
 B2!p! F2 B4- | B4 E4 | z8 | z8 | z2 F^G A4- | A2 =G2 F2 E2 | z8 | B2 c2 ^d2 cd | e6 d2 | %66
w: go. Fa la|* la,|||fa la la|* la la la,||fa la la la la|la, fa|
 c2 BA B4- | B2 A2 A4- | A4 ^G4 | A8 | A4!f! d2 c2 | B4 A4- | A4 ^G4 | A8 |!mp! c2 c4 c2 | d4 c4 | %76
w: la la la la,|* fa la|* la|la|la, fa la|la la|* la|la.|Then dance we|on a|
 B8 | f4 e4 | d2 e4 c2 | ^d6!p! d2 | e8 | E8 | z8 | A2 B2 c2 Bc | d6 c2 | B4 A2 GF | G2 FE F4 | %87
w: row,|And chant|it as we|go. Fa|la|la,||fa la la la la|la la|la la la la|la la la la,|
"^cresc." E2 F2 ^G2 FG | A4 E4 | E8 | z8 |!f! c2 d2 e2[Q:1/4=119] d[Q:1/4=118]e |[Q:1/4=115] f8 | %93
w: fa la la la la|la la|la,||fa la la la la|la|
[Q:1/4=109] e8- |[Q:1/4=104] e8 |[Q:1/4=102] !fermata!c8 |] %96
w: la||la.|
V:2
 z4!f! c4 | e4 A2 d2- | d2 c2 B4- | B2 d2 c3 B | (cd e4) ^d2 |[M:2/2] e2 gf e2 d2 | c2 ed c2 B2 | %7
w: See,|see the shep\-|* herds' queen,|* Fair Phyl- lis|all * * in|green, fa la la la|la, fa la la la|
 A2 cB A2 G2 | F4 E4 | z2 BA ^G2 c2 | B8 | A8 |!p! A8 | A4 A2 F2- | F (^G A2) G4- | G2 B2 A4- | %16
w: la, fa la la la|la la,|fa la la la|la|la,|See,|see the shep\-|* herds' * queen,|* Fair Phyl\-|
 A2 ^G2 F3 F | E2 BA ^G2 F2 | E4 z4 | z2 AG F2 E2 | D2 BA ^G2 c2 | B6 A2- | A2 ^GF G4 | %23
w: * lis, all in|green, fa la la la|la.|fa la la la|la, fa la la la|la, fa|* la la la|
 A4 z2!f! A2 | B3 c d2 e2 | f4 f2 f2 | e3 e e (d c2) | d3 d d3 d |!p! d4 d4- | d2 =c2 B4 | %30
w: la, The|shep- herds home her|bring- ing With|pip- ing and with *|sing- ing, sing- img.|Fa la|* la la|
 A4 z2 F2 | A2 G2 E2 D2- | D2 C2 D4- | D4 z2 A2 | edcd edcB | c2 d2 c2 d2- | d2 B2 B4 | %37
w: la, fa|la la la la|* la la,|* fa|la la la la la la la la|la, fa la la|* la la|
 B4 z2!mp! c2 | d3 c B2 B2 | B4 B2 B2 | B3 B B2 A2 | A3 A B3 B | A2 B2 A2 B2- | B2 A4 ^G2 | A8 | %45
w: la. The|shep- herds home her|bring- ing With|pip- ing and with|sing- ing, sing- ing.|Fa la la la|* la la|la,|
 z8 | z2"^cresc." A2 d=cBc | d=cBA ^GB A2 | ^G2 A4 G2 | A4 z2!f! A2 | F2 G2 F4 | ^G8 | %52
w: |fa la la la la|la la la la la la la,|fa la la|la, fa|la la la|la.|
!mp! c2 c4 c2 | d4 c4 | B8 | f4 e4 | d2 e4 c2 | ^d6!p! d2 | e8 | E8 | z8 | A2 B2 c2 Bc | d6 c2 | %63
w: Then dance we|on a|row,|And chant|it as we|go. Fa|la|la,||fa la la la la|la la|
 B4 A2 GF | G2 FE F4 |"^cresc." E2 F2 ^G2 FG | A4 E4 | E8 | z8 |!f! c2 d2 e2 de | f8 | e8- | e8 | %73
w: la, fa la la|la la la la,|fa la la la la|la la|la,||fa la la la la|la|la||
 c8 |!mp! A2 A4 A2 | A4 A4 | ^G8 | B4 B4 | B2 B4 ^A2 | B2!p! F2 B4- | B4 E4 | z8 | z8 | %83
w: la.|Then dance we|on a|row,|And chant|it as we|go. Fa la|* la,|||
 z2 F^G A4- | A2 =G2 F2 E2 | z8 |"^cresc." B2 c2 ^d2 cd | e6 d2 | c2 BA B4- | B2 A2 A4- | A4 ^G4 | %91
w: fa la la|* la la la,||fa la la la la|la la,|fa la la la,|* fa la|* la|
!f! A8 | A4!f! d2 c2 | B4 A4- | A4 ^G4 | !fermata!A8 |] %96
w: la|la, fa la|la la|* la|la.|
V:3
!f! E8 | E4 E2 D2- | D2 E2 E4- | E2 F2 F4- | F2 E2 A2 F2 |[M:2/2] ^G2 E2 E4 | z2 GF E3 D | %7
w: See,|see the shep\-|* herds' queen,|* Fair Phyl\-|* lis all in|green, fa la,|fa la la la|
 C2 A,2 z4 | z4 z2 E2- | EB, E2- EB, E2 | z2 DC B,3 E | C8 |!p! E8 | E4 E2 D2- | D2 E2 E4- | %15
w: la la,|fa|* la la * la la,|fa la la la|la,|See,|see the shep\-|* herds' queen,|
 E2 F2 F4- | F2 E2 A2 F2 | ^G2 E2 E4 | z2 GF E3 D | C2 A,2 z4 | z4 z2 E2- | EB, E2- EB, E2 | %22
w: * Fair Phyl\-|* lis all in|green, fa la,|fa la la la|la la,|fa|* la la * la la,|
 z2 DC B,3 E | C6!f! E2 | G3 G F2 G2 | F4 F2 F2 | ^G3 A B2 E2 | F3 F G3 G |!p! F2 G2 F2 G2- | %29
w: fa la la la|la, The|shep- herds home her|bring- ing With|pip- ing and with|sing- ing, sing- ing.|Fa la la, fa|
 G2 E2 z2 E2- | E2 F2 E2 A,2 | z2 E2 AGFG | AGFE D3 G, | A,2 D4 C2 | B,2 A,2 B,2 E2- | %35
w: * la, fa|* la la la,|fa la la la la|la la la la la, fa~|la la la|la la la, fa|
 E2 F2 E2 F2- | F2 E2- EF ^D2 | E4 z2!mp! E2 | G3 G F2 G2 | F4 F2 F2 | ^G3 A B2 E2 | F3 F G3 G | %42
w: * la la la,|* fa * la la|la. The|shep- herds home her|bring- ing With|pip- ing and with|sing- ing, sing- ing.|
 F2 G2 F2 G2- | G2 E2 z2 E2- | E2 F2 E2 A,2 | z2 E2 AGFG | AGFE D3"^cresc." G, | A,2 D4 C2 | %48
w: Fa la la, fa|* la, fa|* la la la,|fa la la la la|la la la la, fa la~|la, fa la|
 B,2 A,2 B,2!f! E2- | E2 F2 E2 F2- | F2 E2- EF ^D2 | E8 |!mp! E2 E4 E2 | F4 E4 | E8 | F4 G4 | %56
w: la la la, fa|* la la la,|* fa * la la|la.|Then dance we|on a|row,|And chant|
 G2 G4 F2 | F8 | z8 |!p! E2 F2 ^G2 FG | A6 =G2 | F4 E4 | z4 z2 E2- | E2 D2 C2 B,A, | B,6 A,2 | %65
w: it as we|go.||Fa la la la la|la, fa|la la,|fa|* la la la la|la, fa|
 ^G,2 A,2 B,4 | z2"^cresc." E4 D2 | C4 E4 | F4 E2 D2 | C2 B,2 A,4 |!f! F2 ^G2 A2 GA | B2 E4 A,2 | %72
w: ~la la la,|fa la|la, fa|la la la|la la la,|fa la la, fa la|la la, fa|
 E8 | E8 |!mp!!mp! E2 E4 E2 | F4 E4 | E8 | F4 G4 | G2 G4 F2 | F8 | z8 |!p! E2 F2 ^G2 FG | A6 G2 | %83
w: la|la.|Then dance we|on a|row,|And chant|it as we|go.||Fa la, la la la|la, fa|
 F4 E4 | z4 z2 E2- | E2 D2 C2 B,A, | B,6 A,2 | ^G,2 A,2 B,4 | z2"^cresc." E4 D2 | C4 E4 | %90
w: la la,|fa|* la la la la|la, fa|la la la,|fa la|la, fa|
 F4 E2 D2 |!f! C2 B,2 A,4 | F2 ^G2 A2 GA | B2 E4 A,2 | E8 | !fermata!E8 |] %96
w: la la la|la la la,|fa la la la la|la la, fa|la|la.|
V:4
!f! c4 e4 | z2 A4 D2- | D2 A2 B4- | B2 B2 c2 A2- | A2 (B2 c2) B2 |[M:2/2][K:treble-8] B8 | %6
w: See, see|the shep\-|* herds' queen,|* Fair Phyl- lis|* all * in|green,|
 z4 z2 e2 | A8 | z2 dc B2 A2 | ^G2 E2 z2 A2 | B6 B2 | e8 |!p! c4 e4 | z2 A4 D2- | D2 A2 B4- | %15
w: fa|la,|fa la la la|la la, fa|la la|la,|See, see|the shep\-|* herds' queen,|
 B2 B2 c2 A2- | A2 (B2 c2) B2 | B8 | z4 z2 e2 | A8 | z2 dc B2 A2 | ^G2 E2 z2 A2 | B6 B2 | %23
w: * Fair Phyl- lis|* all * in|green,|fa|la,|fa la la la|la la, fa|la la|
 e6!f! A2 | dc B4 e2 | ^d4 d2 B2 | B3 e e3 e | d3 d z2!p! G2 | d=cBc (dc)BA | G2 A2 e3 d | %30
w: la, The|shep- herds home her|bring- ing With|pip- ing and with|sing- ing. Fa|la la la la la * la la~la|la, fa la la|
 c2 d2 c2 d2 | f2 B2 E2 A2 | A3 G F2 G2- | G2 F2 E2 A2 | E8 | z4 z2 F2 | BAGA BA^GF | %37
w: la la la la|la la la, fa|la la la la|* la la la|la,|fa|la la la la la la la la|
 E2 B4!mp! A2 | dc B4 e2 | ^d4 d2 B2 | B3 e e3 e | d3 d z2 G2 | d=cBc dcBA | G2 A2 e3 d | %44
w: la la. The|shep- herds home her|bring- ing With|pip- ing and with|sing- ing. Fa|la la la la la la la la|la, fa la la|
 c2 d2 c2 d2 | f2 B2 E2 A2 | A3 G F2 G2- | G2"^cresc." F2 E2 A2 | E8 | z4 z2!f! F2 | BAGA BA^GF | %51
w: la la la la|la a la, fa|la la la, fa|* la la la|la,|fa|la la la la la la la la|
 E2 B6 |!mp! e2 A4 A2 | A4 A4 | B4 B4- | B4 B4 | B4 c3 c | B8 |!p! ^G2 A2 B2 AB | c4 B4 | %60
w: la la.|Then dance we|on a|row, And|* chant|it as we|go.|Fa la la la la|la la,|
 A2 B2 c2 Bc | d4 z2 A2 | D4 A4 | E8 | z8 | z8 |"^cresc." E3 F ^G2 FG | A6 c2 | B8 | %69
w: fa la la la la|la, fa|la la|la,|||fa la la la la|la la|la,|
!f! A2 B2 c2 Bc | d8- | d4 c4 | B8 | A8 |!mp! e2 A4 A2 | A4 A4 | B4 B4- | B4 B4 | B4 c3 c | B8 | %80
w: fa la la la la|la|* la|la|la.|Then dance we|on a|row, And|* chant|it as we|go.|
!p! ^G2 A2 B2 AB | c4 B4 | A2 B2 c2 Bc | d4 z2 A2 | D4 A4 | E8 | z8 | z8 |"^cresc." E3 F ^G2 FG | %89
w: Fa la la la la|la la,|fa la la la la|la, fa|la la|la,|||fa la la la la|
 A6 c2 | B8 |!f! A2 B2 c2 Bc | d8- | d4 c4 | B8 | !fermata!A8 |] %96
w: la la|la,|fa la la la la|la|* la|la|la.|
V:5
!f! A,8 | C,4 D,2 B,,2- | B,,2 A,,2 E,4- | E,2 B,,2 F,4- | F,2 ^G,2 A,2 B,2 |[M:2/2] E,8 | E,8 | %7
w: See,|see the shep\-|* herds' queen,|* Fair Phyl\-|* lis all in|green,|fa|
 F,2 C,2 D,4- | D,2 D,2 E,4- | E,2 G,F, E,2 D,C, | D,2 B,,2 E,4 | A,,8 |!p! A,8 | C,4 D,2 B,,2- | %14
w: la la la,|* fa la,|* fa la la, fa la|la, fa la,|la,|See,|see the shep\-|
 B,,2 A,,2 E,4- | E,2 B,,2 F,4- | F,2 ^G,2 A,2 B,2 | E,8 | E,8 | F,2 C,2 D,4- | D,2 D,2 E,4- | %21
w: * herds' queen,|* Fair Phyl\-|* lis all in|green,|fa|la la la,|* fa la,|
 E,2 G,F, E,2 D,C, | D,2 B,,2 E,4 | A,,6!f! A,2 | G,3 A, B,2 E,2 | B,2 B,4 ^D,2 | E,3 F, ^G,2 A,2 | %27
w: * fa la la, fa la|la, fa la|la, The|shep- herds home her|bring- ing With|pip- ing and with|
 F,D, D2 B,G, z2 | z8 | z4 z2!p! E,2 | A,G,F,G, A,G,F,E, | D,2 E,2 C,2 D,2 | A,,3 A, D,2 G,2 | %33
w: sing- ing, with sing- ing.||Fa|la la la la la la la la~la~la|la, fa la la|la la la la|
 D,4 z4 | z4 z2 E,2 | A,G,F,G, A,G,F,E, | D,2 E,2 B,,4 | E,4 z2!mp! A,2 | G,3 A, B,2 E,2 | %39
w: la,|fa|la la la, fa la la la la~la|la, fa la|la. The|shep- herds home her|
 B,2 B,4 ^D,2 | E,3 F, ^G,2 A,2 | F,D, D2 B,G, z2 | z8 | z4 z2 E,2 | A,G,F,G, A, (G,F,)E, | %45
w: bring- ing With|pip- ing and with|sing- ing, with sing- ing.||Fa|la la la la la la * la~la|
 D,2 E,2 C,2 D,2 | A,,3 A, D,2 G,2 | D,4 z4 | z4 z2!f! E,2 | A,G,F,G, A,G,F,E, | D,2 E,2 B,,4 | %51
w: la, fa la la|la la la la|la,|fa|la la la, fa la la la la|la, fa la|
 E,8 |!mp! A,,2 A,,4 A,,2 | D,4 A,,4 | E,8 | ^D,4 E,4 | G,2 E,4 F,2 | B,,8 |!p! E,2 F,2 ^G,2 F,G, | %59
w: la.|Then dance we|on a|row,|And chant|it as we|go.|Fa la la la la|
 A,4 ^G,4 | F,4 E,4 | D,4 C,4 | B,,4 A,,4 | ^G,,4 A,,4 | E,4 B,,4 | C,4 B,,4 | A,,4 z4 | %67
w: la la|la la|la la|la, fa|la la|la la|la la|la,|
 A,,2 B,,2 C,2 B,,C, | D,2 C,D, E,4 | A,,4 z4 |!f! D,2 E,2 F,2 E,F, | ^G,2 F,G, A,4 | E,8 | A,,8 | %74
w: fa la la la la|la, fa la la|la.|fa la la la la|la, fa la la|la|la.|
!mp! A,,2 A,,4 A,,2 | D,4 A,,4 | E,8 | ^D,4 E,4 | G,2 E,4 F,2 | B,,8 |!p! E,2 F,2 ^G,2 F,G, | %81
w: Then dance we|on a|row,|And chant|it as we|go.|Fa la la la la|
 A,4 ^G,4 | F,4 E,4 | D,4 C,4 | B,,4 A,,4 | ^G,,4 A,,4 | E,4 B,,4 | C,4 B,,4 | A,,4 z4 | %89
w: la, fa|la la|la la|la, fa|la la|la la|la la|la,|
"^cresc." A,,2 B,,2 C,2 B,,C, | D,2 C,D, E,4 | A,,4 z4 |!f! D,2 E,2 F,2 E,F, | ^G,2 F,G, A,4 | %94
w: fa la la la la|la, fa la la|la,|fa la la la la|la, fa la la|
 E,8 | !fermata!A,,8 |] %96
w: la|la.|

